X: 2
T: The Tap Room
R: reel
M: 4/4
L: 1/8
K: Emin
|:E2BE [Dd]EBE|dBAF DEFD|E2BE [Dd]EBE|dBAF BEED|E2BE [Dd]EBE|dBAF DEFA|afge fdec|dBAF BEE2:|:e3f gfec|dBAF DFGD|Beef gfec||dBAF BEE2|Beef gfec|dBAF DFGA|afge fdec|dBAF BEE2:|


Tune 711	Setting 13781

